X:1
T:I Will Set My Ship In Order
M:3/4
L:1/8
K:A
 E2| A3/2 A/2 A2- E=G| FE D2 EE| A3/2 A/2 A2- ce| dc B2c-d| ed c2B-A|\
 cB A2 E=G| FE D2 EE| A3/2 A/2 A2||
